!!!!SEGMENT: pl-sa--172-a-v-2--012_szczurowski-jacek--msza-swiateczna-benedictus.krn
!!!cenid: 17xx:272
!!!COM: Szczurowski, Jacek
!!!COM-rismID: pe30017605
!!!CDT: 1716/08/15-~1733
!!!CNT: Polish
!!!OPR: Msza świąteczna
!!!OTL: Benedictus
!!!OMV: 012
!!!PDT:
!!!AGN: Sacred; Mass
!!!SMS-siglum: PL-SA
!!!SMS-shelfmark: 172/A V 2
!!!SMS-shelfwork: 001-012 M
!!!NIFC-rismSourceID:
!!!NIFC-islandoraID:
!!!URL-pdf-islandora:
!!!URL-scan: https://bc.bdsandomierz.pl/dlibra/publication/1506/edition/1474/content @EN{Scan in the Sandomierz Diocese Digital Library} @PL{Skany w portalu Cyfrowa Biblioteka Diecezjalna w Sandomierzu}
!!!ONB-nifc: UWAGA: części Mszy: Kyrie, Christe, Et in terra, Laudamus, Qui tollis, Quoniam, Patrem, Et Incarnatus, Ressurexit, Sanctus, Osanna, Benedictus, Agnus Dei
!!!AIN: 2 cor 1 organ 2 soprn 2 violn
!!!OMD:
!!!OMD-mod: Andante
!!!key: G
**kern	**fba	**dynam	**kern	**dynam	**kern	**dynam	**kern	**kern	**text	**kern	**kern
*part7	*part7	*part7	*part6	*part6	*part5	*part5	*part4	*part3	*part3	*part2	*part1
*staff7	*	*	*staff6	*	*staff5	*	*staff4	*staff3	*staff3	*staff2	*staff1
*I"Organo	*	*	*I"Violino 2di	*	*I"Violino. Primo	*	*I"Soprano 2.do:	*I"Soprano Primo.	*	*I"Corno 2.do Ex D:	*I"Corno Primo ex D:
*	*	*	*mI"Violino II	*	*mI"Violino I	*	*mI"Soprano II	*mI"Soprano I	*	*mI"Corno II in D	*mI"Corno I in D
*I'org	*	*	*I'vl 2	*	*I'vl 1	*	*I'S 2	*I'S 1	*	*I'cor 2 in D	*I'cor 1 in D
*Iorgan	*	*	*Ivioln	*	*Ivioln	*	*Isoprn	*Isoprn	*	*Icor	*Icor
*ICklav	*	*	*ICstr	*	*ICstr	*	*ICvox	*ICvox	*	*ICbras	*ICbras
*	*	*	*	*	*	*	*tacet	*	*	*tacet	*tacet
*IGcont	*	*	*	*	*	*	*	*	*	*	*
*clefF4	*	*	*clefG2	*	*clefG2	*	*	*clefC1	*	*	*
*	*	*	*	*	*	*	*	*mclefG2	*	*	*
*k[f#]	*	*	*k[f#]	*	*k[f#]	*	*	*k[f#]	*	*	*
*G:	*	*	*G:	*	*G:	*	*G:	*G:	*	*G:	*G:
*M12/8	*	*	*M12/8	*	*M12/8	*	*	*M12/8	*	*	*
=-	=-	=-	=-	=-	=-	=-	=-	=-	=-	=-	=-
!LO:TX:a:t=andante:mod=	!	!	!LO:TX:a:t=andante:mod=	!	!LO:TX:a:t=andante:mod=	!	!LO:TX:a:t=Benedictus \nTacet:mod=	!LO:TX:a:t=Andante.:mod=	!	!LO:TX:a:t=Benedictus \nTacet:mod=	!LO:TX:a:t=Benedictus \nTacet:mod=
8r	.	.	8r	.	8dd\	.	8ryy	8r	.	8ryy	8ryy
=1	=1	=1	=1	=1	=1	=1	=1	=1	=1	=1	=1
!	!	!	!	!	!	!	!	!LO:TX:a:t=8:mod=	!	!	!
4GG/	.	.	4b/	.	4gg\	.	1.ryy	00.r	.	1.ryy	1.ryy
8r	.	.	8b/	.	8dd\	.	.	.	.	.	.
4GG/	.	.	4g/	.	4b/	.	.	.	.	.	.
8r	.	.	8g/	.	8g/	.	.	.	.	.	.
4G\	.	.	8.g/L	.	8.g/L	.	.	.	.	.	.
.	.	.	16d/K	.	16d/K	.	.	.	.	.	.
8r	.	.	8g/J	.	8b/J	.	.	.	.	.	.
8.d\L	.	.	4.g/	.	4.b/	.	.	.	.	.	.
16A\K	.	.	.	.	.	.	.	.	.	.	.
8F#\J	.	.	.	.	.	.	.	.	.	.	.
=2	=2	=2	=2	=2	=2	=2	=2	=2	=2	=2	=2
4D/	.	.	4f#/	.	4a/	.	1.ryy	.	.	1.ryy	1.ryy
8r	.	.	8dd\	.	8ff#\	.	.	.	.	.	.
4D/	.	.	4ff#\	.	4aa\	.	.	.	.	.	.
8r	.	.	8dd\	.	8ff#\	.	.	.	.	.	.
!LO:SIC:s=4D	!	!	!	!	!	!	!	!	!	!	!
4F#\	.	.	4b\	.	4dd\	.	.	.	.	.	.
8r	.	.	8a/	.	8cc\	.	.	.	.	.	.
!LO:SIC:s=4F#	!	!	!	!	!	!	!	!	!	!	!
4D/	.	.	8.f#/L	.	8.a/L	.	.	.	.	.	.
.	.	.	16d/K	.	16d/K	.	.	.	.	.	.
8ryy	.	.	8a/J	.	8cc/J	.	.	.	.	.	.
=3	=3	=3	=3	=3	=3	=3	=3	=3	=3	=3	=3
!LO:MO:mod=!null:null	!	!	!	!	!	!	!	!	!	!	!
!LO:N:vis=8.	!	!	!	!	!	!	!	!	!	!	!
8G\L	.	.	4.a/	.	4.cc\	.	1.ryy	.	.	1.ryy	1.ryy
8D\	.	.	.	.	.	.	.	.	.	.	.
8BB\J	.	.	.	.	.	.	.	.	.	.	.
4GG/	.	.	8g/	.	4b\	.	.	.	.	.	.
.	.	.	4g/	.	.	.	.	.	.	.	.
8r	.	.	.	.	8dd\	.	.	.	.	.	.
4G\	4	.	4cc\	.	8.ee\L	.	.	.	.	.	.
.	.	.	.	.	16cc\K	.	.	.	.	.	.
!	!	!	!LO:LB:g=original	!	!	!	!	!	!	!	!
8r	.	.	8ee\	.	8gg\J	.	.	.	.	.	.
!	!	!	!LO:SIC:s=4gg	!	!LO:LB:g=original	!	!	!	!	!	!
4G\	4	.	4ff#\	.	8.ccc\L	.	.	.	.	.	.
.	.	.	.	.	16gg\K	.	.	.	.	.	.
8r	.	.	8cc\	.	8ee\J	.	.	.	.	.	.
=4	=4	=4	=4	=4	=4	=4	=4	=4	=4	=4	=4
4G\	3	.	4b\	.	8.dd\L	.	1.ryy	.	.	1.ryy	1.ryy
.	.	.	.	.	16b\K	.	.	.	.	.	.
8r	.	.	8dd\	.	8gg\J	.	.	.	.	.	.
4G\	3	.	4dd\	.	8.bb\L	.	.	.	.	.	.
.	.	.	.	.	16gg\K	.	.	.	.	.	.
8r	.	.	8b\	.	8dd\J	.	.	.	.	.	.
4D/	7	.	4a/	.	8.cc\L	.	.	.	.	.	.
.	.	.	.	.	16a\K	.	.	.	.	.	.
!LO:LB:g=original	!	!	!	!	!	!	!	!	!	!	!
8r	.	.	8a/	.	8ff#\J	.	.	.	.	.	.
4D/	7	.	4cc\	.	8.aa\L	.	.	.	.	.	.
.	.	.	.	.	16ff#\K	.	.	.	.	.	.
8ryy	.	.	8b\	.	8dd\J	.	.	.	.	.	.
=5	=5	=5	=5	=5	=5	=5	=5	=5	=5	=5	=5
8.F#\L	.	.	4a/	.	4cc\	.	1.ryy	00.r	.	1.ryy	1.ryy
16D\K	.	.	.	.	.	.	.	.	.	.	.
8G\J	.	.	8g/	.	8b\	.	.	.	.	.	.
4D/	.	.	4cc\	.	8.aa\L	.	.	.	.	.	.
.	.	.	.	.	16ff#\K	.	.	.	.	.	.
8F#\	.	.	8a/	.	8cc\J	.	.	.	.	.	.
!	!	!	!	!	!LO:MO:mod=!null:null	!	!	!	!	!	!
!	!	!	!	!	!LO:N:vis=4.	!	!	!	!	!	!
8.d\L	.	.	4.g/	.	4b/	.	.	.	.	.	.
16A\K	.	.	.	.	.	.	.	.	.	.	.
8F#\J	.	.	.	.	4a/	.	.	.	.	.	.
4D/	.	.	4f#/	.	.	.	.	.	.	.	.
.	.	.	.	.	4d/	.	.	.	.	.	.
8r	.	.	8d/	.	.	.	.	.	.	.	.
=6	=6	=6	=6	=6	=6	=6	=6	=6	=6	=6	=6
4D/	.	.	4f#/	.	8.d/L	.	1.ryy	.	.	1.ryy	1.ryy
.	.	.	.	.	16f#/K	.	.	.	.	.	.
8r	.	.	8a/	.	8a/J	.	.	.	.	.	.
4F#\	.	.	4a/	.	8cc/L	.	.	.	.	.	.
.	.	.	.	.	16cc	.	.	.	.	.	.
.	.	.	.	.	16a/K	.	.	.	.	.	.
!	!	!	!LO:TX:t=P:problem=kreska taktowa pojedyncza	!	!	!	!	!	!	!	!
8r	.	.	8f#/	.	8f#/J	.	.	.	.	.	.
4G\	.	.	4g/	.	8b/L	.	.	.	.	.	.
.	.	.	.	.	16b	.	.	.	.	.	.
.	.	.	.	.	16g/K	.	.	.	.	.	.
8r	.	.	8b/	.	8dd/J	.	.	.	.	.	.
4GG/	.	.	4b/	.	4gg\	.	.	.	.	.	.
8r	.	.	8b/	.	8dd\	.	.	.	.	.	.
=7	=7	=7	=7	=7	=7	=7	=7	=7	=7	=7	=7
4D/	.	.	4f#/	.	8.d/L	.	1.ryy	.	.	1.ryy	1.ryy
.	.	.	.	.	16f#/K	.	.	.	.	.	.
8r	.	.	8a/	.	8a/J	.	.	.	.	.	.
4F#\	.	.	4a/	.	8.cc/L	.	.	.	.	.	.
.	.	.	.	.	16a/K	.	.	.	.	.	.
8r	.	.	8f#/	.	8f#/J	.	.	.	.	.	.
4G\	.	.	4g/	.	8.b/L	.	.	.	.	.	.
.	.	.	.	.	16g/K	.	.	.	.	.	.
8r	.	.	8b/	.	8dd/J	.	.	.	.	.	.
4GG/	.	.	4b/	.	4gg\	.	.	.	.	.	.
8r	.	.	8b/	.	8dd\	.	.	.	.	.	.
=8	=8	=8	=8	=8	=8	=8	=8	=8	=8	=8	=8
4GG/	.	.	4b/	.	8.gg\L	.	1.ryy	.	.	1.ryy	1.ryy
.	.	.	.	.	16dd\K	.	.	.	.	.	.
8r	.	.	8r	.	8b\J	.	.	.	.	.	.
!	!	!	!	!	!LO:LB:g=original	!	!	!	!	!	!
4C/	.	.	4e/	.	8.ee\L	.	.	.	.	.	.
.	.	.	.	.	16cc\K	.	.	.	.	.	.
8r	.	.	8r	.	8a\J	.	.	.	.	.	.
4D/	.	.	4f#/	.	8d/L	.	.	.	.	.	.
.	.	.	.	.	8a/	.	.	.	.	.	.
8r	.	.	8r	.	8f#/J	.	.	.	.	.	.
!	!	!	!LO:LB:g=original	!	!	!	!	!	!	!	!
8G\L	.	.	8g/L	.	4g/	.	.	.	.	.	.
8D\	.	.	8d/	.	.	.	.	.	.	.	.
8BB\J	.	.	8B/J	.	8r	.	.	.	.	.	.
=9	=9	=9	=9	=9	=9	=9	=9	=9	=9	=9	=9
8GG/L	.	.	8G/L	.	4r	.	1.ryy	4r	.	1.ryy	1.ryy
8BB/	.	.	8B/	.	.	.	.	.	.	.	.
8D/J	.	.	8d/J	.	8r	.	.	8r	.	.	.
!	!	!LO:DY:a:t=%sia&colon;:mod= 	!	!	!	!	!	!	!	!	!
4G\	.	p	4G/	.	4r	.	.	4r	.	.	.
8r	.	.	8r	.	8dd\	.	.	8dd\	Be-	.	.
!	!	!LO:DY:t= :mod=%s	!	!LO:DY:a	!	!LO:DY:a:t=pia&colon;:mod=%s	!	!	!	!	!
4GG/	.	p	4b/	p	4gg\	p	.	4gg\	.	.	.
8r	.	.	8b/	.	8dd\	.	.	8dd\	.	.	.
4GG/	.	.	4g/	.	4b/	.	.	4b\	-ne-	.	.
8r	.	.	8g/	.	8g/	.	.	8g\	.	.	.
=10	=10	=10	=10	=10	=10	=10	=10	=10	=10	=10	=10
4G\	.	.	8.g/L	.	8.g/L	.	1.ryy	4g/	-di-	1.ryy	1.ryy
.	.	.	16d/K	.	16d/K	.	.	.	.	.	.
8r	.	.	8g/J	.	8b/J	.	.	8b\	.	.	.
8.d\L	.	.	4.g/	.	4.b/	.	.	4.b\	-ctus	.	.
16A\K	.	.	.	.	.	.	.	.	.	.	.
8F#\J	.	.	.	.	.	.	.	.	.	.	.
4D/	.	.	4f#/	.	4a/	.	.	4a\	.	.	.
8r	.	.	8dd\	.	8ff#\	.	.	8ff#\	qui	.	.
!	!	!	!	!	!	!	!	!LO:LB:g=original	!	!	!
4D/	.	.	4ff#\	.	4aa\	.	.	4aa\	ve-	.	.
8r	.	.	8dd\	.	8ff#\	.	.	8ff#\	.	.	.
!LO:LB:g=original	!	!	!	!	!	!	!	!	!	!	!
=11	=11	=11	=11	=11	=11	=11	=11	=11	=11	=11	=11
4D/	.	.	4b/	.	4dd\	.	1.ryy	4dd\	.	1.ryy	1.ryy
8r	.	.	8a/	.	8cc\	.	.	8cc\	.	.	.
4F#\	.	.	8.f#/L	.	8.a/L	.	.	4a\	.	.	.
.	.	.	16d/K	.	16d/K	.	.	.	.	.	.
8r	.	.	8a/J	.	8cc/J	.	.	8cc\	.	.	.
8.G\L	.	.	4.a/	.	4.cc\	.	.	4.cc\	-nit	.	.
16D\K	.	.	.	.	.	.	.	.	.	.	.
8BB\J	.	.	.	.	.	.	.	.	.	.	.
4GG/	.	.	4g/	.	4b\	.	.	4b\	.	.	.
8r	.	.	8b/	.	8dd\	.	.	8dd\	in	.	.
=12	=12	=12	=12	=12	=12	=12	=12	=12	=12	=12	=12
4G\	4_	.	4cc\	.	4ee\	.	1.ryy	8.ee\L	no-	1.ryy	1.ryy
.	.	.	.	.	.	.	.	16gg\K	.	.	.
8r	.	.	8r	.	8r	.	.	8ee\J	.	.	.
4G\	.	.	4cc\	.	4ee\	.	.	8.ee\L	.	.	.
.	.	.	.	.	.	.	.	16gg\K	.	.	.
8r	.	.	8r	.	8r	.	.	8ee\J	.	.	.
4G\	3_	.	4b\	.	4dd\	.	.	8.dd\L	.	.	.
.	.	.	.	.	.	.	.	16gg\K	.	.	.
8r	.	.	8r	.	8r	.	.	8dd\J	.	.	.
4G\	.	.	4b\	.	4dd\	.	.	8.dd\L	.	.	.
.	.	.	.	.	.	.	.	16gg\K	.	.	.
8r	.	.	8r	.	8r	.	.	8dd\J	.	.	.
=13	=13	=13	=13	=13	=13	=13	=13	=13	=13	=13	=13
4D/	7	.	4a/	.	8.cc\L	.	1.ryy	4.cc\	.	1.ryy	1.ryy
.	.	.	.	.	16a\K	.	.	.	.	.	.
8r	.	.	8a/	.	8ff#\J	.	.	.	.	.	.
4D/	.	.	4cc\	.	8.aa\L	.	.	8.aa\L	.	.	.
.	.	.	.	.	16ff#\K	.	.	16ff#\K	.	.	.
8r	.	.	8b\	.	8dd\J	.	.	8dd\J	.	.	.
!	!	!	!LO:LB:g=original	!	!LO:LB:g=original	!	!	!	!	!	!
4D/	.	.	4a/	.	4cc\	.	.	4cc\	.	.	.
8r	.	.	8g/	.	8b\	.	.	8b\	.	.	.
4D/	.	.	4cc\	.	8.aa\L	.	.	8.aa\L	.	.	.
.	.	.	.	.	16ff#\K	.	.	16ff#\K	.	.	.
8r	.	.	8a/	.	8cc\J	.	.	8cc\J	.	.	.
!	!	!	!	!	!	!	!	!LO:LB:g=original	!	!	!
=14	=14	=14	=14	=14	=14	=14	=14	=14	=14	=14	=14
8.d\L	.	.	4.g/	.	4.b/	.	1.ryy	4b\	.	1.ryy	1.ryy
16A\K	.	.	.	.	.	.	.	.	.	.	.
8F#\J	.	.	.	.	.	.	.	8b\	-mi-	.	.
!	!	!	!	!	!	!	!	!	!LO:MO:mod=-ne	!	!
4D/	.	.	4f#/	.	4a/	.	.	4a\	-ni	.	.
8r	.	.	8d/	.	8d/	.	.	8d/	in	.	.
4D/	.	.	4f#/	.	8.d/L	.	.	4.d/	no-	.	.
.	.	.	.	.	16f#/K	.	.	.	.	.	.
8r	.	.	8r	.	8a/J	.	.	.	.	.	.
4F#\	.	.	4a/	.	8.cc/L	.	.	4.cc\	.	.	.
.	.	.	.	.	16a/K	.	.	.	.	.	.
8r	.	.	8r	.	8f#/J	.	.	.	.	.	.
=15	=15	=15	=15	=15	=15	=15	=15	=15	=15	=15	=15
4G\	.	.	4g/	.	8.g/L	.	1.ryy	4b\	.	1.ryy	1.ryy
.	.	.	.	.	16b/K	.	.	.	.	.	.
8r	.	.	8b/	.	8dd/J	.	.	8dd\	-mi-	.	.
4GG/	.	.	4b/	.	4gg\	.	.	4gg\	-ne	.	.
8r	.	.	8b/	.	8dd\	.	.	8dd\	.	.	.
4D/	.	.	4f#/	.	8.d/L	.	.	4.d/	in	.	.
.	.	.	.	.	16f#/K	.	.	.	.	.	.
8r	.	.	8r	.	8a/J	.	.	.	.	.	.
!	!	!	!	!	!	!	!	!	!LO:MO:mod=no-	!	!
4F#\	.	.	4a/	.	8.cc/L	.	.	4.cc\	No-	.	.
.	.	.	.	.	16a/K	.	.	.	.	.	.
8r	.	.	8r	.	8f#/J	.	.	.	.	.	.
=16	=16	=16	=16	=16	=16	=16	=16	=16	=16	=16	=16
4G\	.	.	4g/	.	8.g/L	.	1.ryy	4b\	.	1.ryy	1.ryy
.	.	.	.	.	16b/K	.	.	.	.	.	.
8r	.	.	8b/	.	8dd/J	.	.	8dd\	-mi-	.	.
4GG/	.	.	4b/	.	4gg\	.	.	4gg\	-ne	.	.
8r	.	.	8b/	.	8dd\	.	.	8dd\	.	.	.
!	!	!	!	!	!	!	!	!	!LO:MO:mod=Do-	!	!
4GG/	.	.	4b/	.	8.gg\L	.	.	8.gg\L	do-	.	.
.	.	.	.	.	16dd\K	.	.	16dd\K	.	.	.
8r	.	.	8r	.	8b\J	.	.	8b\J	.	.	.
4C/	.	.	4e/	.	8.ee\L	.	.	8.ee\L	.	.	.
.	.	.	.	.	16cc\K	.	.	16cc\K	.	.	.
8r	.	.	8r	.	8a\J	.	.	8a\J	.	.	.
=17	=17	=17	=17	=17	=17	=17	=17	=17	=17	=17	=17
8D/L	.	.	8g/L	.	8b/L	.	1.ryy	4.g/	.	1.ryy	1.ryy
8D/	.	.	8g/	.	8b/	.	.	.	.	.	.
8D/J	.	.	8g/J	.	8b/J	.	.	.	.	.	.
8DD/L	.	.	8f#/L	.	8a/L	.	.	4.a/	.	.	.
8DD/	.	.	8f#/	.	8a/	.	.	.	.	.	.
8DD/J	.	.	8f#/J	.	8a/J	.	.	.	.	.	.
!LO:LB:g=original	!	!	!	!	!	!	!	!	!	!	!
8.G\L	.	.	8g/L	.	4g/	.	.	8g/	-mi-	.	.
.	.	.	8d/	.	.	.	.	4g/	-ni	.	.
16D\K	.	.	.	.	.	.	.	.	.	.	.
8BB\J	.	.	8B/J	.	8r	.	.	.	.	.	.
8GG/L	.	.	4G/	.	4r	.	.	8r	.	.	.
8BB/	.	.	.	.	.	.	.	4r	.	.	.
!	!	!	!	!LO:DY:a	!	!LO:DY:a	!	!	!	!	!
8GG/J	.	.	8b/	f	8dd\	f	.	.	.	.	.
!	!	!	!	!	!LO:LB:g=original	!	!	!LO:LB:g=original	!	!	!
=18	=18	=18	=18	=18	=18	=18	=18	=18	=18	=18	=18
!	!	!LO:DY:a	!	!	!	!	!	!LO:TX:a:t=2:mod=	!	!	!
4G\	.	f	4cc\	.	8.ee\L	.	1.ryy	0.r	.	1.ryy	1.ryy
.	.	.	.	.	16cc\K	.	.	.	.	.	.
8r	.	.	8ee\	.	8gg\J	.	.	.	.	.	.
4G\	4	.	4ee\	.	8.ccc\L	.	.	.	.	.	.
.	.	.	.	.	16gg\K	.	.	.	.	.	.
8r	.	.	8cc\	.	8ee\J	.	.	.	.	.	.
4G\	3_	.	4b\	.	8.dd\L	.	.	.	.	.	.
.	.	.	.	.	16b\K	.	.	.	.	.	.
8r	.	.	8dd\	.	8gg\J	.	.	.	.	.	.
!	!	!	!LO:LB:g=original	!	!	!	!	!	!	!	!
4G\	.	.	4dd\	.	8.bb\L	.	.	.	.	.	.
.	.	.	.	.	16gg\K	.	.	.	.	.	.
!	!	!	!LO:SIC:s=8b	!	!	!	!	!	!	!	!
8r	.	.	8cc\	.	8dd\J	.	.	.	.	.	.
=19	=19	=19	=19	=19	=19	=19	=19	=19	=19	=19	=19
4D/	7	.	4a/	.	8.cc\L	.	1.ryy	.	.	1.ryy	1.ryy
.	.	.	.	.	16a\K	.	.	.	.	.	.
8r	.	.	8a/	.	8ff#\J	.	.	.	.	.	.
4D/	.	.	4cc/	.	8.aa\L	.	.	.	.	.	.
.	.	.	.	.	16ff#\K	.	.	.	.	.	.
8r	.	.	8b/	.	8dd\J	.	.	.	.	.	.
4D/	.	.	4cc/	.	8.aa\L	.	.	.	.	.	.
.	.	.	.	.	16ff#\K	.	.	.	.	.	.
8F#\	.	.	8a/	.	8cc\J	.	.	.	.	.	.
8G\L	.	.	8g/L	.	8b/L	.	.	.	.	.	.
8D\	.	.	8g/	.	8b/	.	.	.	.	.	.
8D\J	.	.	8g/J	.	8b/J	.	.	.	.	.	.
=20	=20	=20	=20	=20	=20	=20	=20	=20	=20	=20	=20
!	!	!	!	!	!	!	!	!LO:MO:mod=!null:null	!	!	!
!	!	!	!	!	!	!	!	!LO:N:vis=2	!	!	!
8DD/L	.	.	8f#/L	.	8a/L	.	1.ryy	2.r	.	1.ryy	1.ryy
8DD/	.	.	8f#/	.	8a/	.	.	.	.	.	.
8DD/J	.	.	8f#/J	.	8a/J	.	.	.	.	.	.
8G\L	.	.	8g/L	.	4g/	.	.	.	.	.	.
8D\	.	.	8d/	.	.	.	.	.	.	.	.
8BB\J	.	.	8B/J	.	4r	.	.	.	.	.	.
8GG/L	.	.	8G/L	.	.	.	.	4r	.	.	.
8BB/	.	.	8B/	.	4r	.	.	.	.	.	.
8D/J	.	.	8d/J	.	.	.	.	8r	.	.	.
4GG/	.	.	4G/	.	4r	.	.	4r	.	.	.
!	!	!	!	!	!	!	!	!	!LO:MO:mod=Be-	!	!
8r	.	.	8r	.	8dd\	.	.	8dd\	be-	.	.
=21	=21	=21	=21	=21	=21	=21	=21	=21	=21	=21	=21
!	!	!LO:DY:a:t=pia&colon;:mod=%s	!	!LO:DY:a	!	!LO:DY:a	!	!	!	!	!
4GG/	.	p	4b/	p	4gg\	p	1.ryy	4gg\	.	1.ryy	1.ryy
!	!	!	!	!	!	!	!	!	!LO:MO:mod=.	!	!
8r	.	.	8b/	.	8dd\	.	.	8dd\	-ne-	.	.
!	!	!	!	!	!	!	!	!	!LO:MO:null:mod=-ne-	!	!
4GG/	.	.	4g/	.	4b/	.	.	4b\	.	.	.
!	!	!	!	!	!	!	!	!	!LO:MO:mod=.	!	!
8r	.	.	8g/	.	8g/	.	.	8g\	-di-	.	.
!	!	!	!	!	!	!	!	!	!LO:MO:null:mod=-di-	!	!
4G\	.	.	8.g/L	.	8.g/L	.	.	4g/	.	.	.
.	.	.	16d/K	.	16d/K	.	.	.	.	.	.
8r	.	.	8g/J	.	8b/J	.	.	8b\	.	.	.
!	!	!	!	!	!	!	!	!	!LO:MO:null:mod=-ctus	!	!
8.d\L	.	.	4.g/	.	4b/	.	.	4.b\	.	.	.
16A\K	.	.	.	.	.	.	.	.	.	.	.
8F#\J	.	.	.	.	8ryy	.	.	.	.	.	.
=22	=22	=22	=22	=22	=22	=22	=22	=22	=22	=22	=22
!	!	!	!	!	!	!	!	!	!LO:MO:mod=.	!	!
4D/	7	.	4f#/	.	4a/	.	1.ryy	4a\	-ctus	1.ryy	1.ryy
8r	.	.	8dd\	.	8ff#\	.	.	8ff#\	qui	.	.
4D/	.	.	4ff#\	.	4aa\	.	.	4aa\	ve-	.	.
8r	.	.	8dd\	.	8ff#\	.	.	8ff#\	.	.	.
4D/	.	.	4b/	.	4dd\	.	.	4dd\	.	.	.
8r	.	.	8a/	.	8cc\	.	.	8cc\	.	.	.
4D/	.	.	8.f#/L	.	8.a/L	.	.	4a\	.	.	.
.	.	.	16d/K	.	16d/K	.	.	.	.	.	.
!LO:MO:mod=!null:null	!	!	!	!	!	!	!	!	!	!	!
!LO:N:vis=4	!	!	!	!	!	!	!	!	!	!	!
8F#	.	.	8a/J	.	8cc/J	.	.	8cc\	.	.	.
!LO:LB:g=original	!	!	!	!	!LO:LB:g=original	!	!	!	!	!	!
=23	=23	=23	=23	=23	=23	=23	=23	=23	=23	=23	=23
8.G\L	.	.	4.a/	.	4.cc\	.	1.ryy	4.cc\	-nit	1.ryy	1.ryy
16D\K	.	.	.	.	.	.	.	.	.	.	.
8BB\J	.	.	.	.	.	.	.	.	.	.	.
!	!	!	!	!	!	!	!	!	!LO:MO:mod=.	!	!
4GG/	.	.	4g/	.	4b\	.	.	4b\	in	.	.
!	!	!	!	!	!	!	!	!	!LO:MO:null:mod=in	!	!
8r	.	.	8b/	.	8dd\	.	.	8dd\	.	.	.
!	!	!	!LO:LB:g=original	!	!	!	!	!	!LO:MO:mod=no-	!	!
4GG/	.	.	4b\	.	4dd\	.	.	8.dd\L	No-	.	.
.	.	.	.	.	.	.	.	16b\L	.	.	.
!	!	!	!	!	!LO:SIC:s=8ff	!	!	!	!	!	!
8r	.	.	8dd\	.	8ff#\	.	.	8ff\JJ	.	.	.
!	!	!	!	!	!	!	!	!LO:LB:g=original	!LO:MO:null:mod=-mi-	!	!
4BB/	6	.	4b\	.	4dd\	.	.	8.dd\	.	.	.
!	!	!	!	!	!	!	!	!	!LO:MO:mod=.	!	!
.	5	.	.	.	.	.	.	16b\	-mi-	.	.
!	!	!	!	!	!LO:SIC:s=8ff	!	!	!LO:SIC:s=8ff	!	!	!
8r	.	.	8dd\	.	8ff#\	.	.	8ffn\	-ne	.	.
=24	=24	=24	=24	=24	=24	=24	=24	=24	=24	=24	=24
!	!	!	!	!	!LO:SIC:s=4ff	!	!	!LO:SIC:s=4ff	!LO:MO:mod=Do-	!	!
8.C/L	.	.	4dd\	.	4ff#\	.	1.ryy	4ff#\	do-	1.ryy	1.ryy
16GG/K	.	.	.	.	.	.	.	.	.	.	.
8EE/J	.	.	8cc\	.	8ee\	.	.	8ee\	-mi-	.	.
4CC/	.	.	4cc\	.	4ee\	.	.	4ee\	-ni	.	.
8r	.	.	8cc\	.	8ee\	.	.	8ee\	in	.	.
4AA/	.	.	4cc#\	.	4ee\	.	.	8.ee\L	no-	.	.
.	.	.	.	.	.	.	.	16cc#X\K	.	.	.
8r	.	.	8ee\	.	8gg\	.	.	8gg\J	.	.	.
4C#X/	.	.	4cc#\	.	4ee\	.	.	8.ee\	-mi-	.	.
.	.	.	.	.	.	.	.	16cc#\	.	.	.
8r	.	.	8ee\	.	8gg\	.	.	8gg\	-ne	.	.
=25	=25	=25	=25	=25	=25	=25	=25	=25	=25	=25	=25
!	!	!	!	!	!	!	!	!	!LO:MO:mod=Do-	!	!
8.D/L	.	.	4ee\	.	4gg\	.	1.ryy	4gg\	do-	1.ryy	1.ryy
16AA/K	.	.	.	.	.	.	.	.	.	.	.
!	!	!	!	!	!LO:SIC:s=8ff#	!	!	!	!	!	!
8FF#/J	.	.	8dd\	.	8ff#X\	.	.	8ff#X\	-mi-	.	.
4DD/	.	.	4dd\	.	4ff#\	.	.	4ff#\	-ni	.	.
8r	.	.	8ff#\	.	8aa\	.	.	8aa\	in	.	.
4D/	7	.	4cc\	.	8.aa\L	.	.	8.aa\	no-	.	.
.	.	.	.	.	16ff#\K	.	.	16ff#\	-mi-	.	.
8r	.	.	8b\	.	8dd\J	.	.	8dd\	-ne	.	.
!	!	!	!	!	!	!	!	!	!LO:MO:mod=Do-	!	!
4D/	.	.	4a/	.	4cc\	.	.	4cc\	do-	.	.
8r	.	.	8g/	.	8b\	.	.	8b\	.	.	.
=26	=26	=26	=26	=26	=26	=26	=26	=26	=26	=26	=26
4GG/	.	.	4g/	.	8.b\L	.	1.ryy	8.b\L	.	1.ryy	1.ryy
.	.	.	.	.	16dd\K	.	.	16dd\K	.	.	.
8r	.	.	8b/	.	8gg\J	.	.	8gg\J	.	.	.
4GG/	.	.	4g/	.	8.b\L	.	.	8.b\L	.	.	.
.	.	.	.	.	16dd\K	.	.	16dd\K	.	.	.
!	!	!	!LO:SIC:s=8b	!	!	!	!	!	!	!	!
8r	.	.	8cc/	.	8gg\J	.	.	8gg\J	.	.	.
!	!	!	!	!	!	!	!	!LO:LB:g=original	!	!	!
4F#\	.	.	4a/	.	4cc\	.	.	4cc\	.	.	.
8G\	.	.	8g/	.	8b\	.	.	8b\	.	.	.
!	!	!	!	!	!	!	!	!	!LO:MO:null:mod=-mi-	!	!
8.d\L	.	.	4.g/	.	4.b/	.	.	4.b\	.	.	.
16A\K	.	.	.	.	.	.	.	.	.	.	.
8F#\J	.	.	.	.	.	.	.	.	.	.	.
=27	=27	=27	=27	=27	=27	=27	=27	=27	=27	=27	=27
!	!	!	!	!	!	!	!	!	!LO:MO:mod=.	!	!
4D/	7	.	4f#/	.	4a/	.	1.ryy	8a\	-mi-	1.ryy	1.ryy
!	!	!	!	!	!	!	!	!	!LO:MO:null:mod=-ni	!	!
.	.	.	.	.	.	.	.	8a	.	.	.
!	!	!	!	!	!	!	!	!	!LO:MO:mod=in	!	!
8r	.	.	8ff#\	.	8aa\	.	.	8aa\	-ni	.	.
!	!	!	!	!	!	!	!	!	!LO:MO:mod=no-	!	!
4D/	.	.	4cc\	.	8.aa\L	.	.	8.aa\	in	.	.
!	!	!	!	!	!	!	!	!	!LO:MO:mod=-mi-	!	!
.	.	.	.	.	16ff#\K	.	.	16ff#\	No-	.	.
!	!	!	!	!	!	!	!	!	!LO:MO:mod=-ne	!	!
8r	.	.	8b\	.	8dd\J	.	.	8dd\	-mi-	.	.
!	!	!	!	!	!	!	!	!	!LO:MO:mod=Do-	!	!
8F#\L	.	.	4a/	.	4cc\	.	.	4cc\	-ne	.	.
8D\	.	.	.	.	.	.	.	.	.	.	.
!	!	!	!	!	!	!	!	!	!LO:MO:mod=.	!	!
8G\J	.	.	8g/	.	8b\	.	.	8b\	do-	.	.
4GG/	.	.	4g/	.	8.b\L	.	.	8.b\L	.	.	.
.	.	.	.	.	16dd\K	.	.	16dd\K	.	.	.
8r	.	.	8b/	.	8gg\J	.	.	8gg\J	.	.	.
!	!	!	!	!	!LO:LB:g=original	!	!	!	!	!	!
=28	=28	=28	=28	=28	=28	=28	=28	=28	=28	=28	=28
8.d\L	.	.	4.g/	.	4.b/	.	1.ryy	4b\	.	1.ryy	1.ryy
16A\K	.	.	.	.	.	.	.	.	.	.	.
8F#\J	.	.	.	.	.	.	.	8b\	-mi-	.	.
4D/	.	.	4f#/	.	4a/	.	.	4a\	-ni	.	.
8r	.	.	8cc\	.	8ff#\	.	.	8ff#\	in	.	.
!	!	!	!	!	!	!	!	!	!LO:MO:mod=no-	!	!
4GG/	.	.	4b/	.	8.gg\L	.	.	8.gg\L	No-	.	.
.	.	.	.	.	16dd\K	.	.	16dd\K	.	.	.
8r	.	.	8r	.	8b\J	.	.	8b\J	.	.	.
!	!	!	!LO:LB:g=original	!	!	!	!	!	!	!	!
4C/	6	.	4e/	.	8.ee\L	.	.	8.ee\L	-mi-	.	.
.	.	.	.	.	16cc\K	.	.	16cc\K	.	.	.
8r	.	.	8r	.	8a\J	.	.	8a\J	.	.	.
=29	=29	=29	=29	=29	=29	=29	=29	=29	=29	=29	=29
4BB/	6	.	4b/	.	8.dd\L	.	1.ryy	8.dd\L	ne	1.ryy	1.ryy
.	.	.	.	.	16b\K	.	.	16b\K	.	.	.
!LO:TX:t=P:problem=w źródle brak pozostałej części taktu	!	!	!	!	!	!	!	!	!	!	!
8r	.	.	8g/	.	8g\J	.	.	8g\J	.	.	.
!LO:MO:mod=8DL@	!	!	!	!	!	!	!	!	!LO:MO:mod=Do-	!	!
8ryy	.	.	8g/L	.	8b/L	.	.	4.d/	do-	.	.
!LO:MO:mod=8D@	!	!	!	!	!	!	!	!	!	!	!
1ryy	.	.	8g/	.	8b/	.	.	.	.	.	.
!LO:MO:null:mod=8DJ@	!	!	!	!	!	!	!	!	!	!	!
.	.	.	8g/J	.	8b/J	.	.	.	.	.	.
!LO:MO:null:mod=8DDL@	!	!	!	!	!	!	!	!	!	!	!
.	.	.	8f#/L	.	8a/L	.	.	4a\	.	.	.
!LO:MO:null:mod=8DD@	!	!	!	!	!	!	!	!	!	!	!
.	.	.	8f#/	.	8a/	.	.	.	.	.	.
!LO:MO:null:mod=8DDJ@	!	!	!	!	!	!	!	!	!	!	!
.	.	.	8f#/J	.	8a/J	.	.	8a\	-mi-	.	.
!LO:MO:null:mod=8.GL@	!	!	!	!	!	!	!	!LO:LB:g=original	!	!	!
.	.	.	4g/	.	4g/	.	.	4g/	-ni	.	.
!LO:MO:null:mod=16DK@	!	!	!	!	!	!	!	!	!	!	!
.	.	.	.	.	.	.	.	.	.	.	.
!LO:MO:null:mod=8BBJ@	!	!	!	!	!	!	!	!	!	!	!
.	.	.	8d/	.	8d/	.	.	8r	.	.	.
!LO:LB:g=original	!	!	!	!	!	!	!	!	!	!	!
=30	=30	=30	=30	=30	=30	=30	=30	=30	=30	=30	=30
!	!	!LO:DY:t= :mod=%s	!	!	!	!	!	!	!	!	!
!	!	!LO:MO:mod=!LO&colon;DY&colon;ed=brack	!	!	!	!	!	!	!	!	!
!	!	!null	!	!LO:DY:a	!	!LO:DY:a	!	!	!	!	!
4D/	7	f	4f#/	f	8.d/L	f	1.ryy	0.r	.	1.ryy	1.ryy
.	.	.	.	.	16f#/K	.	.	.	.	.	.
8r	.	.	8r	.	8a/J	.	.	.	.	.	.
4D/	.	.	4a/	.	8.cc/L	.	.	.	.	.	.
.	.	.	.	.	16a/K	.	.	.	.	.	.
8r	.	.	8r	.	8f#/J	.	.	.	.	.	.
4G\	.	.	4g/	.	8.b/L	.	.	.	.	.	.
.	.	.	.	.	16g/K	.	.	.	.	.	.
8r	.	.	8b/	.	8dd/J	.	.	.	.	.	.
4GG/	.	.	4b/	.	4gg\	.	.	.	.	.	.
8r	.	.	8b/	.	8dd\	.	.	.	.	.	.
=31	=31	=31	=31	=31	=31	=31	=31	=31	=31	=31	=31
4D/	7	.	4f#/	.	8.d/L	.	1.ryy	.	.	1.ryy	1.ryy
.	.	.	.	.	16f#/K	.	.	.	.	.	.
8r	.	.	8r	.	8a/J	.	.	.	.	.	.
4D/	.	.	4a/	.	8.cc/L	.	.	.	.	.	.
.	.	.	.	.	16a/K	.	.	.	.	.	.
8r	.	.	8r	.	8f#/J	.	.	.	.	.	.
4G\	.	.	4g/	.	8.b/L	.	.	.	.	.	.
.	.	.	.	.	16g/K	.	.	.	.	.	.
8r	.	.	8b/	.	8dd/J	.	.	.	.	.	.
4GG/	.	.	4b/	.	4gg\	.	.	.	.	.	.
8r	.	.	8b/	.	8dd\	.	.	.	.	.	.
=32	=32	=32	=32	=32	=32	=32	=32	=32	=32	=32	=32
4GG/	.	.	4b/	.	8.gg\L	.	1.ryy	1.r	.	1.ryy	1.ryy
.	.	.	.	.	16dd\K	.	.	.	.	.	.
8r	.	.	8r	.	8b\J	.	.	.	.	.	.
4C/	6	.	4e/	.	8.ee\L	.	.	.	.	.	.
.	.	.	.	.	16cc\K	.	.	.	.	.	.
8r	.	.	8r	.	8a\J	.	.	.	.	.	.
!	!	!	!	!	!LO:LB:g=original	!	!	!	!	!	!
4D/	.	.	4f#/	.	8d/L	.	.	.	.	.	.
.	.	.	.	.	8a/	.	.	.	.	.	.
8r	.	.	8r	.	8f#/J	.	.	.	.	.	.
8G\L	.	.	8g/L	.	4g/	.	.	.	.	.	.
8D\	.	.	8d/	.	.	.	.	.	.	.	.
8BB\J	.	.	8B/J	.	8r	.	.	.	.	.	.
=33	=33	=33	=33	=33	=33	=33	=33	=33	=33	=33	=33
8GG/L	.	.	8G/L	.	4r	.	1.ryy	4r	.	1.ryy	1.ryy
8BB/	.	.	8B/	.	.	.	.	.	.	.	.
8D/J	.	.	8d/J	.	8r	.	.	8r	.	.	.
4GG/	.	.	4G/	.	4r	.	.	4r	.	.	.
!	!	!LO:DY:a:t=%sio:mod= 	!	!	!	!LO:DY:a	!	!	!LO:MO:mod=Be-	!	!
8r	.	p	8r	.	8dd\	p	.	8dd\	be-	.	.
!	!	!LO:DY:t= :mod=%s	!	!LO:DY:a	!	!	!	!	!	!	!
4GG/	.	p	4b/	p	4gg\	.	.	4gg\	.	.	.
8r	.	.	8b/	.	8dd\	.	.	8dd\	.	.	.
4GG/	.	.	4g/	.	4b/	.	.	4b\	-ne-	.	.
8r	.	.	8g/	.	8g/	.	.	8g\	.	.	.
=34	=34	=34	=34	=34	=34	=34	=34	=34	=34	=34	=34
4G\	.	.	8.g/L	.	8.g/L	.	1.ryy	4g\	-di-	1.ryy	1.ryy
.	.	.	16d/K	.	16d/K	.	.	.	.	.	.
8r	.	.	8g/J	.	8b/J	.	.	8b\	.	.	.
!	!	!	!LO:LB:g=original	!	!	!	!	!	!LO:MO:null:mod=-ctus	!	!
8.d\L	.	.	4.g/	.	4.b/	.	.	4.b\	.	.	.
!LO:MO:mod=!null:null	!	!	!	!	!	!	!	!	!	!	!
!LO:N:vis=8	!	!	!	!	!	!	!	!	!	!	!
16A\K	.	.	.	.	.	.	.	.	.	.	.
8F#\J	.	.	.	.	.	.	.	.	.	.	.
!	!	!	!	!	!	!	!	!	!LO:MO:mod=.	!	!
4D\	.	.	4f#/	.	4a/	.	.	4a\	-ctus	.	.
8r	.	.	8a/	.	8ff#\	.	.	8ff#\	qui	.	.
4D\	.	.	4dd\	.	4aa\	.	.	4aa\	ve-	.	.
8r	.	.	8a/	.	8ff#\	.	.	8ff#\	.	.	.
=35	=35	=35	=35	=35	=35	=35	=35	=35	=35	=35	=35
4D\	.	.	4b/	.	4dd\	.	1.ryy	4dd\	.	1.ryy	1.ryy
8r	.	.	8a/	.	8cc\	.	.	8cc\	.	.	.
4D\	.	.	8.f#/L	.	8.a/L	.	.	4a\	.	.	.
.	.	.	16d/K	.	16d/K	.	.	.	.	.	.
8F#\	.	.	8a/J	.	8cc/J	.	.	8cc\	.	.	.
!	!	!	!	!	!	!	!	!	!LO:MO:null:mod=-nit	!	!
8.G\L	.	.	4.a/	.	4.cc\	.	.	4.cc\	.	.	.
16D\K	.	.	.	.	.	.	.	.	.	.	.
8BB\J	.	.	.	.	.	.	.	.	.	.	.
!LO:LB:g=original	!	!	!	!	!	!	!	!	!LO:MO:mod=.	!	!
4.GG/	.	.	4g/	.	4b\	.	.	4b\	-nit	.	.
!	!	!	!	!	!	!	!	!LO:SIC:s=8dd	!	!	!
.	.	.	8b/	.	8dd\	.	.	8cc\	in	.	.
!	!	!	!	!	!	!	!	!LO:LB:g=original	!	!	!
=36	=36	=36	=36	=36	=36	=36	=36	=36	=36	=36	=36
4E\	#	.	8.b/L	.	8.dd\L	.	1.ryy	8.dd\L	no-	1.ryy	1.ryy
.	.	.	16g#X/K	.	16b\K	.	.	16b\K	.	.	.
8r	.	.	8b/J	.	8dd\J	.	.	8dd\J	.	.	.
4E\	.	.	8.b/L	.	8.dd\L	.	.	8.dd\L	.	.	.
!	!	!	!LO:SIC:s=16g#K	!	!	!	!	!	!	!	!
.	.	.	16g#X/K	.	16b\K	.	.	16b\K	.	.	.
8r	.	.	8b/J	.	8dd\J	.	.	8dd\J	.	.	.
!	!	!	!	!	!LO:PB:g=original	!	!	!	!	!	!
4G#X\	.	.	8.dd\L	.	8.ffn\L	.	.	8.ff\L	.	.	.
.	.	.	16cc\K	.	16ee\K	.	.	16ee\K	.	.	.
8r	.	.	8b\J	.	8dd\J	.	.	8dd\J	.	.	.
!	!	!	!	!	!LO:SIC:s=8.ffL	!	!	!	!	!	!
4G#\	.	.	8.dd\L	.	8.ffn\L	.	.	8.ff\L	.	.	.
.	.	.	16cc\K	.	16ee\K	.	.	16ee\K	.	.	.
8r	.	.	8b\J	.	8dd\J	.	.	8dd\J	.	.	.
=37	=37	=37	=37	=37	=37	=37	=37	=37	=37	=37	=37
8A\L	.	.	4b/	.	4dd\	.	1.ryy	4dd\	.	1.ryy	1.ryy
8E\	.	.	.	.	.	.	.	.	.	.	.
8C\J	.	.	8a/	.	8cc\	.	.	8cc\	-mi-	.	.
!	!	!	!	!	!	!	!	!	!LO:MO:mod=-ne	!	!
4AA/	.	.	4a/	.	4cc\	.	.	4cc\	-ni	.	.
8r	.	.	8a/	.	8cc\	.	.	8cc\	in	.	.
!	!	!	!	!	!	!	!	!	!LO:MO:mod=no-	!	!
4D/	.	.	8.a/L	.	8.cc\L	.	.	8.cc\L	No-	.	.
.	.	.	16f#/K	.	16a\K	.	.	16a\K	.	.	.
8r	.	.	8a/J	.	8cc\J	.	.	8cc\J	.	.	.
4D/	.	.	8.a/L	.	8.cc\L	.	.	8.cc\L	.	.	.
.	.	.	16f#/K	.	16a\K	.	.	16a\K	.	.	.
8r	.	.	8a/J	.	8cc\J	.	.	8cc\J	.	.	.
=38	=38	=38	=38	=38	=38	=38	=38	=38	=38	=38	=38
4F#\	.	.	8.cc\L	.	8.ee\L	.	1.ryy	8.ee\L	.	1.ryy	1.ryy
.	.	.	16b\K	.	16dd\K	.	.	16dd\K	.	.	.
8r	.	.	8a\J	.	8cc\J	.	.	8cc\J	.	.	.
4F#\	.	.	8.cc\L	.	8.ee\L	.	.	8.ee\L	.	.	.
.	.	.	16b\K	.	16dd\K	.	.	16dd\K	.	.	.
8r	.	.	8a\J	.	8cc\J	.	.	8cc\J	.	.	.
!LO:SIC:s=8GL	!	!	!LO:LB:g=original	!	!	!	!	!	!	!	!
8Gn\L	.	.	4a/	.	4cc\	.	.	4cc\	.	.	.
8D\	.	.	.	.	.	.	.	.	.	.	.
8BB\J	.	.	8g/	.	8b\	.	.	8b\	-mi-	.	.
!	!	!	!	!	!LO:SIC:s=4b	!	!	!	!	!	!
4GG/	.	.	4g/	.	4cc\	.	.	4b\	-ne	.	.
8r	.	.	8b/	.	8dd\	.	.	8dd\	in	.	.
!	!	!	!	!	!	!	!	!LO:PB:g=original	!	!	!
=39	=39	=39	=39	=39	=39	=39	=39	=39	=39	=39	=39
!	!	!	!	!	!	!	!	!	!LO:MO:mod=no-	!	!
4GG/	4	.	4cc\	.	4ee\	.	1.ryy	8.ee\L	No-	1.ryy	1.ryy
.	.	.	.	.	.	.	.	16gg\K	.	.	.
8r	.	.	8r	.	8r	.	.	8ee\J	.	.	.
4GG/	.	.	4cc\	.	4ee\	.	.	8.ee\L	.	.	.
.	.	.	.	.	.	.	.	16gg\K	.	.	.
8r	.	.	8r	.	8r	.	.	8ee\J	.	.	.
4GG/	3	.	4b\	.	4dd\	.	.	8.dd\L	.	.	.
.	.	.	.	.	.	.	.	16gg\K	.	.	.
8r	.	.	8r	.	8r	.	.	8dd\J	.	.	.
4GG/	.	.	4b\	.	4dd\	.	.	8.dd\L	.	.	.
.	.	.	.	.	.	.	.	16gg\K	.	.	.
8r	.	.	8r	.	8r	.	.	8dd\J	.	.	.
=40	=40	=40	=40	=40	=40	=40	=40	=40	=40	=40	=40
4D/	2	.	4a/	.	8.cc\L	.	1.ryy	4.cc\	.	1.ryy	1.ryy
.	.	.	.	.	16a\K	.	.	.	.	.	.
8r	.	.	8a/	.	8ff#\J	.	.	.	.	.	.
4D/	.	.	4cc\	.	8.aa\L	.	.	8.aa\L	.	.	.
.	.	.	.	.	16ff#\K	.	.	16ff#\K	.	.	.
8r	.	.	8b\	.	8dd\J	.	.	8dd\J	.	.	.
!	!	!	!	!	!LO:LB:g=original	!	!	!	!LO:MO:mod=.	!	!
4D/	.	.	4a/	.	4cc\	.	.	4cc\	-mi-	.	.
!	!	!	!	!	!	!	!	!	!LO:MO:mod=.	!	!
8r	.	.	8g/	.	8b\	.	.	8b\	-ne	.	.
!	!	!	!	!	!	!	!	!	!LO:MO:null:mod=-mi-	!	!
4D/	.	.	4cc\	.	8.aa\L	.	.	8.aa\L	.	.	.
.	.	.	.	.	16ff#\K	.	.	16ff#\K	.	.	.
!	!	!	!	!	!	!	!	!	!LO:MO:null:mod=-ne	!	!
8r	.	.	8a/	.	8b\J	.	.	8cc\J	.	.	.
!!LO:MO:ori
=41	=41	=41	=41	=41	=41	=41	=41	=41	=41	=41	=41
!LO:TX:t=P:problem:zbędne powtórzenie w tt. nr 	!	!	!	!	!	!	!	!	!	!	!
4E\	#	.	1.ryy	.	1.ryy	.	1.ryy	1.ryy	.	1.ryy	1.ryy
8r	.	.	.	.	.	.	.	.	.	.	.
4E\	.	.	.	.	.	.	.	.	.	.	.
8r	.	.	.	.	.	.	.	.	.	.	.
!LO:PB:g=original	!	!	!	!	!	!	!	!	!	!	!
4G\	.	.	.	.	.	.	.	.	.	.	.
8r	.	.	.	.	.	.	.	.	.	.	.
4G\	.	.	.	.	.	.	.	.	.	.	.
8r	.	.	.	.	.	.	.	.	.	.	.
=42	=42	=42	=42	=42	=42	=42	=42	=42	=42	=42	=42
8A\L	.	.	1.ryy	.	1.ryy	.	1.ryy	1.ryy	.	1.ryy	1.ryy
8E\	.	.	.	.	.	.	.	.	.	.	.
8C\J	.	.	.	.	.	.	.	.	.	.	.
4AA/	.	.	.	.	.	.	.	.	.	.	.
8r	.	.	.	.	.	.	.	.	.	.	.
4D/	.	.	.	.	.	.	.	.	.	.	.
8r	.	.	.	.	.	.	.	.	.	.	.
4D/	.	.	.	.	.	.	.	.	.	.	.
8r	.	.	.	.	.	.	.	.	.	.	.
=43	=43	=43	=43	=43	=43	=43	=43	=43	=43	=43	=43
4F#\	.	.	1.ryy	.	1.ryy	.	1.ryy	1.ryy	.	1.ryy	1.ryy
8r	.	.	.	.	.	.	.	.	.	.	.
4F#\	.	.	.	.	.	.	.	.	.	.	.
8r	.	.	.	.	.	.	.	.	.	.	.
8Gn\L	.	.	.	.	.	.	.	.	.	.	.
8D\	.	.	.	.	.	.	.	.	.	.	.
8BB\J	.	.	.	.	.	.	.	.	.	.	.
4GG/	.	.	.	.	.	.	.	.	.	.	.
8r	.	.	.	.	.	.	.	.	.	.	.
=44	=44	=44	=44	=44	=44	=44	=44	=44	=44	=44	=44
4GG/	4	.	1.ryy	.	1.ryy	.	1.ryy	1.ryy	.	1.ryy	1.ryy
8r	.	.	.	.	.	.	.	.	.	.	.
4GG/	.	.	.	.	.	.	.	.	.	.	.
8r	.	.	.	.	.	.	.	.	.	.	.
4GG/	3	.	.	.	.	.	.	.	.	.	.
8r	.	.	.	.	.	.	.	.	.	.	.
4GG/	.	.	.	.	.	.	.	.	.	.	.
8r	.	.	.	.	.	.	.	.	.	.	.
=45	=45	=45	=45	=45	=45	=45	=45	=45	=45	=45	=45
4D/	7	.	1.ryy	.	1.ryy	.	1.ryy	1.ryy	.	1.ryy	1.ryy
8r	.	.	.	.	.	.	.	.	.	.	.
4D/	.	.	.	.	.	.	.	.	.	.	.
8r	.	.	.	.	.	.	.	.	.	.	.
4D/	.	.	.	.	.	.	.	.	.	.	.
8r	.	.	.	.	.	.	.	.	.	.	.
4D/	.	.	.	.	.	.	.	.	.	.	.
8r	.	.	.	.	.	.	.	.	.	.	.
!!LO:MO:end
=46	=46	=46	=46	=46	=46	=46	=46	=46	=46	=46	=46
8.d\L	.	.	4g/	.	4b/	.	1.ryy	4b\	Do-	1.ryy	1.ryy
16A\K	.	.	.	.	.	.	.	.	.	.	.
8F#\J	.	.	8f#/	.	8a/	.	.	8a\	-mi-	.	.
4D/	.	.	4f#/	.	4a/	.	.	4a\	-ni	.	.
!	!	!	!LO:MO:mod=8d	!	!	!	!	!	!	!	!
8r	.	.	4d/	.	8d/	.	.	8d/	in	.	.
!	!	!	!LO:MO:null:mod=4d	!	!	!	!	!	!	!	!
4D/	.	.	.	.	8.d/L	.	.	4.d/	no-	.	.
!	!	!	!LO:MO:mod=.	!	!	!	!	!	!	!	!
.	.	.	8r	.	.	.	.	.	.	.	.
.	.	.	.	.	16f#/K	.	.	.	.	.	.
8r	.	.	8f#/	.	8a/J	.	.	.	.	.	.
4F#\	.	.	4a/	.	8.cc/L	.	.	4.cc\	.	.	.
.	.	.	.	.	16a/K	.	.	.	.	.	.
8r	.	.	8r	.	8f#/J	.	.	.	.	.	.
=47	=47	=47	=47	=47	=47	=47	=47	=47	=47	=47	=47
!	!	!	!	!	!	!	!	!	!LO:MO:mod=.	!	!
4GG/	.	.	4g/	.	8.g/L	.	1.ryy	4b\	-mi-	1.ryy	1.ryy
.	.	.	.	.	16b/K	.	.	.	.	.	.
!	!	!	!	!	!	!	!	!	!LO:MO:null:mod=-mi-	!	!
8r	.	.	8b/	.	8dd/J	.	.	8dd\	.	.	.
4G\	.	.	4b/	.	4gg\	.	.	4gg\	-ne	.	.
8r	.	.	8b/	.	8dd\	.	.	8dd\	in	.	.
!	!	!	!	!	!	!	!	!LO:LB:g=original	!	!	!
4D/	.	.	4f#/	.	8.d/L	.	.	4.d/	no-	.	.
.	.	.	.	.	16f#/K	.	.	.	.	.	.
8r	.	.	8r	.	8a/J	.	.	.	.	.	.
4F#\	.	.	4a/	.	8.cc/L	.	.	4.cc\	.	.	.
.	.	.	.	.	16a/K	.	.	.	.	.	.
8r	.	.	8r	.	8f#/J	.	.	.	.	.	.
=48	=48	=48	=48	=48	=48	=48	=48	=48	=48	=48	=48
4G\	.	.	4g/	.	8.g/L	.	1.ryy	4b\	.	1.ryy	1.ryy
.	.	.	.	.	16b/K	.	.	.	.	.	.
!	!	!	!	!	!	!	!	!	!LO:MO:mod=.	!	!
8r	.	.	8b/	.	8dd/J	.	.	8dd\	-mi-	.	.
!	!	!	!	!	!	!	!	!	!LO:MO:mod=-mi-	!	!
4GG/	.	.	4b/	.	4gg\	.	.	4gg\	-ne	.	.
!	!	!	!	!	!	!	!	!	!LO:MO:null:mod=-ne	!	!
8r	.	.	8b/	.	8dd\	.	.	8dd\	.	.	.
!	!	!	!	!	!	!	!	!	!LO:MO:mod=Do-	!	!
4GG/	.	.	4b/	.	8.gg\L	.	.	8.gg\L	do-	.	.
.	.	.	.	.	16dd\K	.	.	16dd\K	.	.	.
8r	.	.	8r	.	8b\J	.	.	8b\J	.	.	.
4C/	6	.	4e/	.	8.ee\L	.	.	8.ee\L	.	.	.
.	.	.	.	.	16cc\K	.	.	16cc\K	.	.	.
8r	.	.	8r	.	8a\J	.	.	8a\J	.	.	.
!	!	!	!LO:LB:g=original	!	!	!	!	!	!	!	!
=49	=49	=49	=49	=49	=49	=49	=49	=49	=49	=49	=49
8D/L	.	.	8d/L	.	8g/L	.	1.ryy	4.g/	.	1.ryy	1.ryy
8D/	.	.	8d/	.	8g/	.	.	.	.	.	.
8D/J	.	.	8d/J	.	8g/J	.	.	.	.	.	.
!	!	!	!	!	!LO:LB:g=original	!	!	!	!	!	!
8DD/L	.	.	8f#/L	.	8a/L	.	.	4.a/	-mi-	.	.
8DD/	.	.	8f#/	.	8a/	.	.	.	.	.	.
8DD/J	.	.	8f#/J	.	8a/J	.	.	.	.	.	.
!	!	!	!	!	!	!	!	!	!LO:MO:mod=-ni.	!	!
8G\L	.	.	8g/L	.	4g/	.	.	4g/	-ni	.	.
8D\	.	.	8d/	.	.	.	.	.	.	.	.
8BB\J	.	.	8B/J	.	8r	.	.	8r	.	.	.
8GG/L	.	.	4G/	.	4r	.	.	4r	.	.	.
8BB/	.	.	.	.	.	.	.	.	.	.	.
!	!	!	!	!LO:DY:t= :mod=%s	!	!	!	!	!	!	!
!	!	!	!	!LO:MO:mod=!LO&colon;DY&colon;ed=brack	!	!	!	!	!	!	!
!	!	!	!	!null	!	!	!	!	!	!	!
8GG/J	.	.	8b/	f	8dd\	f	.	8r	.	.	.
=50	=50	=50	=50	=50	=50	=50	=50	=50	=50	=50	=50
!	!	!LO:DY:a	!	!	!	!	!	!LO:TX:a:t=4:mod=	!	!	!
4GG/	.	f	4cc\	.	8.ee\L	.	1.ryy	00.r	.	1.ryy	1.ryy
.	.	.	.	.	16cc\K	.	.	.	.	.	.
8r	.	.	8ee\	.	8gg\J	.	.	.	.	.	.
4GG/	.	.	4ee\	.	8.ccc\L	.	.	.	.	.	.
.	.	.	.	.	16gg\K	.	.	.	.	.	.
!	!	!	!LO:SIC:s=8cc	!	!	!	!	!	!	!	!
8r	.	.	8dd\	.	8ee\J	.	.	.	.	.	.
4G\	3	.	4b\	.	8.dd\L	.	.	.	.	.	.
.	.	.	.	.	16b\K	.	.	.	.	.	.
8r	.	.	8b\	.	8gg\J	.	.	.	.	.	.
4G\	.	.	4dd\	.	8.bb\L	.	.	.	.	.	.
.	.	.	.	.	16gg\K	.	.	.	.	.	.
8r	.	.	8b\	.	8dd\J	.	.	.	.	.	.
=51	=51	=51	=51	=51	=51	=51	=51	=51	=51	=51	=51
4D/	7	.	4a/	.	8.cc\L	.	1.ryy	.	.	1.ryy	1.ryy
.	.	.	.	.	16a\K	.	.	.	.	.	.
8r	.	.	8a/	.	8ff#\J	.	.	.	.	.	.
4D/	.	.	4cc/	.	8.aa\L	.	.	.	.	.	.
.	.	.	.	.	16ff#\K	.	.	.	.	.	.
8r	.	.	8b/	.	8dd\J	.	.	.	.	.	.
4D/	.	.	4a/	.	4cc\	.	.	.	.	.	.
8r	.	.	8g/	.	8b\	.	.	.	.	.	.
!	!	!	!	!	!LO:TX:a:t=P:problem=mixed beam	!	!	!	!	!	!
4D/	.	.	8g/L	.	8b/L	.	.	.	.	.	.
.	.	.	8f#/	.	8a/	.	.	.	.	.	.
8r	.	.	8a/J	.	8ff#\J	.	.	.	.	.	.
=52	=52	=52	=52	=52	=52	=52	=52	=52	=52	=52	=52
4GG/	.	.	4b/	.	8.gg\L	.	1.ryy	.	.	1.ryy	1.ryy
.	.	.	.	.	16dd\K	.	.	.	.	.	.
8r	.	.	8r	.	8b\J	.	.	.	.	.	.
4C/	6	.	4e/	.	8.ee\L	.	.	.	.	.	.
.	.	.	.	.	16cc\K	.	.	.	.	.	.
8r	.	.	8r	.	8a\J	.	.	.	.	.	.
4BB/	.	.	4b/	.	8.dd\L	.	.	.	.	.	.
.	.	.	.	.	16b\K	.	.	.	.	.	.
8r	.	.	8r	.	8g\J	.	.	.	.	.	.
4D/	.	.	8d/	.	8d/L	.	.	.	.	.	.
.	.	.	4f#/	.	8a/	.	.	.	.	.	.
8r	.	.	.	.	8f#/J	.	.	.	.	.	.
!	!	!	!	!	!LO:LB:g=original	!	!	!	!	!	!
=53	=53	=53	=53	=53	=53	=53	=53	=53	=53	=53	=53
8G\L	.	.	8g/L	.	4.g/	.	1.ryy	.	.	1.ryy	1.ryy
8D\	.	.	8d/	.	.	.	.	.	.	.	.
8BB\J	.	.	8B/J	.	.	.	.	.	.	.	.
4GG/	.	.	4G/	.	4r	.	.	.	.	.	.
8r	.	.	8r	.	8r	.	.	.	.	.	.
2.r	.	.	2.r	.	2.r	.	.	.	.	.	.
==	==	==	==	==	==	==	==	==	==	==	==
*-	*-	*-	*-	*-	*-	*-	*-	*-	*-	*-	*-
!!!system-decoration: [(s1,s2)][(s3,s4)][(s5,s6)]<s7>
!!!RDF**kern: @ = marked note, color=grey
!!LO:MO:ori
!!!RDF**dynam: f = "For"
!!!RDF**dynam: p = "pia"
!!LO:MO:end
!!!filter-modern: shed -X dynam -e "s/:a/:A/LX" | shed -e "s/TX(.*):t=P:/tx$1:t=P:/LG" | sic -sq | modori -m | autostem -r | tie -s | humtr -p | shed -e "s/yy//"
!!!ENC: Tomasz Grochalski
!!!END: 2020-04-16
!!!ENC: Antoni Szymański
!!!END: 2020-10-02
!!!ENC-modern: Andrzej Kubiczek
!!!END-modern: 2022-07-08
